X:456
T: EN GROFSMID SAT IN GODER ROO
N: E1698
O: Europa, Mitteleuropa, Deutschland, Westfalen, Muenster
R: Staende -, Studenten - Lied
M: 2/4
L: 1/16
K: G
D2 | D2D2D2G2 | F2E2D2
D2 | G2d2B2B2 | B2A2A2
A2 | B2G2D2B2 | A2F2D2
D2 | G3FG2B2 | d6
c2 | B2B2A2A2 | G6

